!!!OTL:
!!!ONR: No. 4
!! From Madeleine Beland,
!! "Chansons de Voyageurs, Coureurs de Bois et Forestiers"
!! Quebec: Les Presses de l'universite/ Laval, 1982
!! ISBN 2-7637-6942-X
**kern
*clefG2
*k[b-e-]
*M9/8
8.r
8.g
8.g
8.g
=
(4.dd
4b-)
8cc
8dd
8ee-
8dd
=
(8dd
4cc
8.r
8.g
8.a
8.b-
*M6/8
=
4cc
8b-
4a
8g
*M9/8
(8g
4f);
4r
8f
4b-
8cc
*M6/8
=
8.dd
8.ee-
(4ff
8ee-)
*M9/8
=
4.b-
8.r
8.b-
8.cc
qb-
8.dd
=
(4.dd
4cc)
8b-
4a
8g
=
(8g
4f);
4r
8r
4b-
8cc
=
4.dd
4r
8r
8.g
8.a
=
8.b-
8.a
2.g
==
*-
